synths/iTRX.svg

<svg width="480" height="480" viewBox="0 0 480 480" fill="none" xmlns="http://www.w3.org/2000/svg"><mask id="mask0-122661" maskUnits="userSpaceOnUse" x="0" y="0" width="480" height="480"><circle cx="240" cy="240" r="240" fill="url(#paint0_linear-793580)"/></mask><g mask="url(#mask0-122661)"><circle cx="240" cy="240" r="240" fill="#FF1E39"/><circle cx="240" cy="240" r="208" fill="#fff"/></g><circle cx="240" cy="240" r="184" fill="#0E052F"/><path d="M240 424c101.62 0 184-82.38 184-184S341.62 56 240 56 56 138.38 56 240s82.38 184 184 184z" fill="#000"/><path d="M340.568 197.059c-9.189-6.521-19.022-13.478-28.636-20.378-.218-.161-.425-.322-.69-.483a12.857 12.857 0 00-3.771-2.151l-.116-.057a37244.526 37244.526 0 01-77.153-19.021l-68.816-16.986-1.806-.483c-2.07-.586-4.461-1.242-7.014-.92a4.83 4.83 0 00-1.955.759l-.645.541a7.929 7.929 0 00-1.805 2.909l-.161.437v2.473l.115.379c14.49 41.228 29.371 83.053 43.723 123.522 11.052 31.165 22.54 63.434 33.741 95.128.69 2.15 2.656 3.565 5.106 3.772h.529a5.975 5.975 0 005.313-2.967l42.09-62.25c10.246-15.145 20.505-30.337 30.763-45.482l12.592-18.653c6.9-10.235 14.03-20.804 21.102-31.096l.369-.529v-.656c.161-1.886.207-5.761-2.875-7.82v.012zm-49.312 22.689c-9.89 5.221-19.976 10.615-30.131 15.951l17.757-19.297c7.383-8.085 15.088-16.445 22.632-24.633l.161-.161c.632-.863 1.437-1.668 2.288-2.53.575-.587 1.219-1.185 1.805-1.886 3.933 2.76 7.912 5.554 11.742 8.303 2.76 1.989 5.578 3.99 8.453 5.98a2939.391 2939.391 0 00-34.707 18.273zm-25.392-2.587a5335.171 5335.171 0 01-23.276 25.38 15047.838 15047.838 0 00-45.598-55.832l-20.459-24.955-.045-.058c-1.541-1.771-3.037-3.714-4.52-5.543-.955-1.242-1.967-2.426-2.979-3.668 6.164 1.61 12.386 3.128 18.492 4.577 5.371 1.299 10.949 2.645 16.423 4.048l92.517 22.793c-10.258 11.109-20.573 22.367-30.555 33.258zm-26.738 105.041c.586-5.658 1.23-11.477 1.759-17.193.483-4.588.955-9.269 1.438-13.742.736-7.176 1.541-14.605 2.185-21.885l.15-1.288c.529-4.646 1.057-9.43 1.379-14.237a15.89 15.89 0 011.921-.92c.793-.368 1.587-.69 2.381-1.173a7011.792 7011.792 0 0136.88-19.515c12.282-6.463 24.874-13.156 37.363-19.78a10773.69 10773.69 0 00-33.856 50.025c-9.51 14.053-19.285 28.554-29.014 42.837-3.818 5.716-7.808 11.535-11.58 17.135-4.255 6.256-8.614 12.662-12.858 19.09a735.92 735.92 0 011.852-19.354zm-74.06-156.998c-.69-1.944-1.449-3.933-2.081-5.819 14.352 17.572 28.795 35.247 42.883 52.382 7.279 8.89 14.559 17.733 21.838 26.68 1.438 1.668 2.875 3.45 4.255 5.175 1.806 2.208 3.612 4.531 5.578 6.739-.644 5.543-1.173 11.155-1.759 16.537-.368 3.772-.737 7.556-1.162 11.385v.046c-.161 2.415-.483 4.853-.748 7.222l-1.218 10.73-.058.368c-.955 10.89-2.127 21.884-3.243 32.556-.471 4.416-.897 8.947-1.38 13.478-.264-.805-.575-1.621-.851-2.38a246.425 246.425 0 01-2.335-6.624l-5.692-16.008-54.039-152.467" fill="#fff"/><defs><linearGradient id="paint0_linear-793580" x1="240" y1="0" x2="240" y2="701.818" gradientUnits="userSpaceOnUse"><stop stop-color="#08021E"/><stop offset="1" stop-color="#1F0777"/></linearGradient></defs></svg>

<svg width="480" height="480" viewBox="0 0 480 480" fill="none" xmlns="http://www.w3.org/2000/svg">
<mask id="mask0-122661" mask-type="alpha" maskUnits="userSpaceOnUse" x="0" y="0" width="480" height="480">
<circle cx="240" cy="240" r="240" fill="url(#paint0_linear-793580)"/>
</mask>
<g mask="url(#mask0-122661)">
<circle cx="240" cy="240" r="240" fill="#FF1E39"/>
<circle cx="240" cy="240" r="208" fill="white"/>
</g>
<circle cx="240" cy="240" r="184" fill="#0E052F"/>
<path d="M240 424C341.62 424 424 341.62 424 240C424 138.38 341.62 56 240 56C138.38 56 56 138.38 56 240C56 341.62 138.38 424 240 424Z" fill="black"/>
<path d="M340.568 197.059C331.379 190.538 321.546 183.581 311.932 176.681C311.714 176.52 311.507 176.359 311.242 176.198C310.116 175.272 308.84 174.545 307.471 174.047L307.355 173.99C281.631 167.677 255.913 161.337 230.202 154.969L161.386 137.983L159.58 137.5C157.51 136.914 155.119 136.258 152.566 136.58C151.866 136.687 151.199 136.946 150.611 137.339L149.966 137.88C149.16 138.706 148.544 139.699 148.161 140.789L148 141.226V143.699L148.115 144.078C162.605 185.306 177.486 227.131 191.838 267.6C202.89 298.765 214.378 331.034 225.579 362.728C226.269 364.878 228.235 366.293 230.685 366.5H231.214C232.284 366.527 233.342 366.266 234.277 365.744C235.212 365.222 235.989 364.458 236.527 363.533L278.617 301.283C288.863 286.138 299.122 270.946 309.38 255.801L321.972 237.148C328.872 226.913 336.002 216.344 343.074 206.052L343.443 205.523V204.867C343.604 202.981 343.65 199.106 340.568 197.047V197.059ZM291.256 219.748C281.366 224.969 271.28 230.363 261.125 235.699L278.882 216.402C286.265 208.317 293.97 199.957 301.514 191.769L301.675 191.608C302.307 190.745 303.112 189.94 303.963 189.078C304.538 188.491 305.182 187.893 305.768 187.192C309.701 189.952 313.68 192.746 317.51 195.495C320.27 197.484 323.088 199.485 325.963 201.475C314.353 207.489 302.784 213.58 291.256 219.748ZM265.864 217.161C258.262 225.51 250.396 234.077 242.588 242.541C227.433 223.894 212.234 205.283 196.99 186.709L176.531 161.754L176.486 161.696C174.945 159.925 173.449 157.982 171.966 156.153C171.011 154.911 169.999 153.727 168.987 152.485C175.151 154.095 181.373 155.613 187.479 157.062C192.85 158.361 198.428 159.707 203.902 161.11L296.419 183.903C286.161 195.012 275.846 206.27 265.864 217.161ZM239.126 322.202C239.712 316.544 240.356 310.725 240.885 305.009C241.368 300.421 241.84 295.74 242.323 291.267C243.059 284.091 243.864 276.662 244.508 269.382L244.658 268.094C245.187 263.448 245.715 258.664 246.037 253.857C246.656 253.508 247.298 253.2 247.958 252.937C248.751 252.569 249.545 252.247 250.339 251.764C262.613 245.223 274.906 238.717 287.219 232.249C299.501 225.786 312.093 219.093 324.582 212.469C313.25 229.112 301.965 245.787 290.726 262.494C281.216 276.547 271.441 291.048 261.712 305.331C257.894 311.047 253.904 316.866 250.132 322.466C245.877 328.722 241.518 335.128 237.274 341.556C237.803 335.082 238.436 328.561 239.126 322.202ZM165.066 165.204C164.376 163.26 163.617 161.271 162.985 159.385C177.337 176.957 191.78 194.632 205.868 211.767C213.147 220.657 220.427 229.5 227.706 238.447C229.144 240.115 230.581 241.897 231.961 243.622C233.767 245.83 235.573 248.153 237.539 250.361C236.895 255.904 236.366 261.516 235.78 266.898C235.412 270.67 235.043 274.454 234.618 278.283V278.329C234.457 280.744 234.135 283.182 233.87 285.551L232.652 296.281L232.594 296.649C231.639 307.539 230.467 318.533 229.351 329.205C228.88 333.621 228.454 338.152 227.971 342.683C227.707 341.878 227.396 341.062 227.12 340.303C226.31 338.106 225.532 335.898 224.785 333.679L219.093 317.671L165.054 165.204" fill="white"/>
<defs>
<linearGradient id="paint0_linear-793580" x1="240" y1="0" x2="240" y2="701.818" gradientUnits="userSpaceOnUse">
<stop stop-color="#08021E"/>
<stop offset="1" stop-color="#1F0777"/>
</linearGradient>
</defs>
</svg>
